img/stars-z2.svg

<svg width="367" height="414" viewBox="0 0 367 414" fill="none" xmlns="http://www.w3.org/2000/svg">
<path fill-rule="evenodd" clip-rule="evenodd" d="M317.236 236.568C317.236 235.185 316.117 234.063 314.735 234.063C313.355 234.063 312.235 235.185 312.235 236.568C312.235 237.952 313.355 239.073 314.735 239.073C316.117 239.073 317.235 237.951 317.236 236.568Z" fill="white"/>
<path fill-rule="evenodd" clip-rule="evenodd" d="M22.4537 304.214C22.6699 302.272 21.2754 300.522 19.338 300.305C17.4005 300.089 15.6552 301.486 15.4383 303.428C15.2215 305.37 16.6166 307.119 18.5541 307.337C20.4916 307.554 22.2375 306.155 22.4537 304.214Z" fill="white"/>
<path fill-rule="evenodd" clip-rule="evenodd" d="M327.799 411.494C327.799 410.11 326.679 408.989 325.299 408.989C323.92 408.989 322.8 410.111 322.8 411.494C322.8 412.879 323.92 414 325.299 414C326.68 414 327.799 412.878 327.799 411.495V411.494Z" fill="white"/>
<path fill-rule="evenodd" clip-rule="evenodd" d="M6.14156 44.5825C6.14156 43.0272 4.88425 41.7683 3.33363 41.7683C1.78301 41.7683 0.525696 43.0272 0.525696 44.5825C0.525696 46.1366 1.78301 47.3967 3.33363 47.3967C4.88488 47.3967 6.14156 46.1366 6.14156 44.5825Z" fill="white"/>
<path fill-rule="evenodd" clip-rule="evenodd" d="M366.589 269.437C366.589 268.726 366.013 268.148 365.303 268.148C364.593 268.148 364.018 268.725 364.018 269.436C364.018 270.149 364.593 270.725 365.303 270.725C366.013 270.725 366.588 270.148 366.589 269.436V269.437Z" fill="white"/>
<path fill-rule="evenodd" clip-rule="evenodd" d="M257.221 0.342823C256.57 -0.189353 255.609 -0.0918064 255.076 0.561376C254.545 1.21583 254.642 2.17754 255.294 2.71162C255.946 3.24506 256.907 3.14751 257.439 2.49306C257.972 1.83988 257.874 0.876899 257.221 0.342823Z" fill="white"/>
<path fill-rule="evenodd" clip-rule="evenodd" d="M44.7497 262.684C44.7996 261.68 44.029 260.826 43.0277 260.776C42.0265 260.724 41.1743 261.497 41.1238 262.501C41.0732 263.505 41.8444 264.359 42.8451 264.409C43.8464 264.459 44.6991 263.686 44.749 262.684H44.7497Z" fill="white"/>
<path fill-rule="evenodd" clip-rule="evenodd" d="M29.746 140.944C29.7447 140.144 29.0968 139.498 28.2991 139.499C27.5013 139.501 26.8565 140.15 26.8578 140.95C26.8591 141.749 27.507 142.395 28.3047 142.394C29.1025 142.393 29.7473 141.743 29.746 140.945V140.944Z" fill="white"/>
</svg>

<svg width="367" height="414" fill="none" xmlns="http://www.w3.org/2000/svg"><path fill-rule="evenodd" clip-rule="evenodd" d="M317.236 236.568a2.503 2.503 0 00-2.501-2.505c-1.38 0-2.5 1.122-2.5 2.505a2.503 2.503 0 002.5 2.505c1.382 0 2.5-1.122 2.501-2.505zM22.454 304.214a3.536 3.536 0 00-3.116-3.909 3.532 3.532 0 00-3.9 3.123 3.536 3.536 0 003.116 3.909 3.532 3.532 0 003.9-3.123zM327.799 411.494a2.503 2.503 0 00-2.5-2.505 2.503 2.503 0 00-2.499 2.505 2.503 2.503 0 002.499 2.506c1.381 0 2.5-1.122 2.5-2.505v-.001zM6.142 44.583a2.81 2.81 0 00-2.808-2.815 2.81 2.81 0 00-2.808 2.815 2.811 2.811 0 002.808 2.814 2.81 2.81 0 002.808-2.814zM366.589 269.437a1.287 1.287 0 10-2.571-.001 1.286 1.286 0 102.571 0v.001zM257.221.343a1.524 1.524 0 00-2.145.218 1.532 1.532 0 00.218 2.15 1.522 1.522 0 002.145-.218 1.53 1.53 0 00-.218-2.15zM44.75 262.684a1.815 1.815 0 10-3.626-.183 1.817 1.817 0 001.721 1.908 1.817 1.817 0 001.904-1.725zM29.746 140.944a1.446 1.446 0 00-1.447-1.445 1.446 1.446 0 00-1.441 1.451 1.445 1.445 0 102.888-.005v-.001z" fill="#fff"/></svg>
